icons/Android-Light.svg

<?xml version="1.0" encoding="UTF-8"?>
<svg id="android" width="256" height="256" fill="none" title="android" version="1.1" viewBox="0 0 256 256" xmlns="http://www.w3.org/2000/svg">
 <style>#android {
    rect {fill: #15191C}

    @media (prefers-color-scheme: light) {
        rect {fill: #F4F2ED}
    }
}</style>
 <rect width="256" height="256" rx="40" fill="#f4f2ed"/>
 <path d="m210.54 172.36c-0.054-0.338-0.105-0.671-0.162-1.005-0.34-2.069-0.764-4.114-1.257-6.131-0.865-3.523-1.954-6.963-3.253-10.293-1.098-2.821-2.348-5.565-3.736-8.225-1.784-3.415-3.797-6.693-6.02-9.811-2.726-3.821-5.771-7.401-9.095-10.699-1.394-1.387-2.838-2.724-4.329-4.006-3.228-2.784-6.677-5.32-10.31-7.586 0.032-0.052 0.059-0.108 0.091-0.16 1.664-2.873 3.334-5.742 4.998-8.614 1.628-2.805 3.255-5.609 4.883-8.4136 1.172-2.0129 2.341-4.0299 3.505-6.0428 0.277-0.4782 0.496-0.9723 0.66-1.4784 0.456-1.4103 0.475-2.8929 0.11-4.2711-0.093-0.3414-0.206-0.6748-0.343-1.0002-0.137-0.3257-0.297-0.643-0.478-0.9483-0.623-1.0446-1.512-1.9527-2.63-2.6157-0.988-0.5865-2.094-0.9361-3.226-1.0365-0.476-0.0401-0.954-0.0362-1.429 0.012-0.392 0.0402-0.782 0.1126-1.17 0.213-1.377 0.3656-2.657 1.1209-3.652 2.2137-0.358 0.3937-0.681 0.8278-0.958 1.3058-1.17 2.0129-2.339 4.0299-3.506 6.0428l-4.883 8.4132c-1.664 2.8731-3.334 5.7411-4.998 8.6141-0.181 0.313-0.365 0.627-0.547 0.944-0.252-0.1-0.502-0.201-0.755-0.297-9.177-3.496-19.135-5.408-29.543-5.408-0.284 0-0.566 0-0.853 4e-3 -9.254 0.092-18.145 1.699-26.44 4.584-0.958 0.334-1.9069 0.687-2.8482 1.057-0.1691-0.293-0.3432-0.587-0.5098-0.88-1.6645-2.873-3.3338-5.741-4.9982-8.6142-1.6277-2.8042-3.2554-5.6087-4.8831-8.4132-1.1717-2.0129-2.341-4.0297-3.5053-6.0426-0.2795-0.4782-0.6006-0.912-0.9585-1.3057-0.9952-1.093-2.2748-1.8484-3.6524-2.214-0.3873-0.1003-0.7771-0.1726-1.1718-0.2127-0.4731-0.0483-0.9511-0.0524-1.4266-0.0123-1.1325 0.0965-2.2381 0.4461-3.2284 1.0367-1.1178 0.6628-2.0003 1.571-2.6278 2.6155-0.1814 0.3053-0.3432 0.6229-0.478 0.9483-0.1373 0.3254-0.2549 0.6589-0.3432 1.0004-0.3652 1.378-0.3456 2.8606 0.1079 4.2709 0.1667 0.5063 0.3824 1.0004 0.6594 1.4786 1.1717 2.0129 2.341 4.0297 3.5053 6.0426 1.6302 2.8047 3.2578 5.6087 4.8855 8.4137 1.6644 2.872 3.3313 5.741 4.9958 8.614 0.0122 0.024 0.0294 0.048 0.0416 0.072-3.3583 2.085-6.5523 4.395-9.5674 6.923-1.8066 1.514-3.5471 3.101-5.2139 4.761-3.3216 3.298-6.3637 6.878-9.0944 10.699-2.2258 3.118-4.2408 6.392-6.0204 9.811-1.3875 2.66-2.6376 5.404-3.7358 8.225-1.2992 3.331-2.3876 6.77-3.2529 10.293-0.4927 2.017-0.9119 4.058-1.2575 6.131-0.0564 0.334-0.1079 0.671-0.1594 1.005-0.1863 1.201-0.3431 2.411-0.4755 3.628h165c-0.132-1.217-0.289-2.427-0.473-3.628l0.012-8e-3z" fill="#34A853"/>
 <path d="m171.42 153.21c3.302-2.195 3.782-7.274 1.071-11.344-2.709-4.07-7.582-5.589-10.881-3.394-3.302 2.196-3.783 7.275-1.072 11.344 2.709 4.07 7.582 5.59 10.882 3.394z" fill="#f4f2ed"/>
 <path d="m96.607 149.83c2.7111-4.07 2.2307-9.149-1.0713-11.344-3.3019-2.196-8.1726-0.676-10.884 3.393-2.7087 4.07-2.2282 9.149 1.0712 11.344 3.302 2.196 8.1752 0.676 10.884-3.393z" fill="#f4f2ed"/>
</svg>

<?xml version="1.0" encoding="UTF-8" standalone="no"?>
<svg
   width="256"
   height="256"
   title="android"
   viewBox="0 0 256 256"
   fill="none"
   id="android"
   version="1.1"
   sodipodi:docname="Android-Light.svg"
   inkscape:version="1.4.2 (ebf0e940, 2025-05-08)"
   xmlns:inkscape="http://www.inkscape.org/namespaces/inkscape"
   xmlns:sodipodi="http://sodipodi.sourceforge.net/DTD/sodipodi-0.dtd"
   xmlns="http://www.w3.org/2000/svg"
   xmlns:svg="http://www.w3.org/2000/svg">
  <defs
     id="defs3" />
  <sodipodi:namedview
     id="namedview3"
     pagecolor="#ffffff"
     bordercolor="#000000"
     borderopacity="0.25"
     inkscape:showpageshadow="2"
     inkscape:pageopacity="0.0"
     inkscape:pagecheckerboard="0"
     inkscape:deskcolor="#d1d1d1"
     inkscape:zoom="1.0623281"
     inkscape:cx="-49.419759"
     inkscape:cy="115.78344"
     inkscape:window-width="1512"
     inkscape:window-height="949"
     inkscape:window-x="0"
     inkscape:window-y="33"
     inkscape:window-maximized="0"
     inkscape:current-layer="android" />
  <style
     id="style1">
#android {
    rect {fill: #15191C}

    @media (prefers-color-scheme: light) {
        rect {fill: #F4F2ED}
    }
}
</style>
  <rect
     width="256"
     height="256"
     rx="40"
     fill="#15191C"
     id="rect1"
     style="fill:#f4f2ed;fill-opacity:1" />
  <path
     d="M210.539 172.364C210.485 172.026 210.434 171.693 210.377 171.359C210.037 169.29 209.613 167.245 209.12 165.228C208.255 161.705 207.166 158.265 205.867 154.935C204.769 152.114 203.519 149.37 202.131 146.71C200.347 143.295 198.334 140.017 196.111 136.899C193.385 133.078 190.34 129.498 187.016 126.2C185.622 124.813 184.178 123.476 182.687 122.194C179.459 119.41 176.01 116.874 172.377 114.608C172.409 114.556 172.436 114.5 172.468 114.448C174.132 111.575 175.802 108.706 177.466 105.834C179.094 103.029 180.721 100.225 182.349 97.4204C183.521 95.4075 184.69 93.3905 185.854 91.3776C186.131 90.8994 186.35 90.4053 186.514 89.8992C186.97 88.4889 186.989 87.0063 186.624 85.6281C186.531 85.2867 186.418 84.9533 186.281 84.6279C186.144 84.3022 185.984 83.9849 185.803 83.6796C185.18 82.635 184.291 81.7269 183.173 81.0639C182.185 80.4774 181.079 80.1278 179.947 80.0274C179.471 79.9873 178.993 79.9912 178.518 80.0394C178.126 80.0796 177.736 80.152 177.348 80.2524C175.971 80.618 174.691 81.3733 173.696 82.4661C173.338 82.8598 173.015 83.2939 172.738 83.7719C171.568 85.7848 170.399 87.8018 169.232 89.8147L164.349 98.2279C162.685 101.101 161.015 103.969 159.351 106.842C159.17 107.155 158.986 107.469 158.804 107.786C158.552 107.686 158.302 107.585 158.049 107.489C148.872 103.993 138.914 102.081 128.506 102.081C128.222 102.081 127.94 102.081 127.653 102.085C118.399 102.177 109.508 103.784 101.213 106.669C100.255 107.003 99.3061 107.356 98.3648 107.726C98.1957 107.433 98.0216 107.139 97.855 106.846C96.1905 103.973 94.5212 101.105 92.8568 98.2318C91.2291 95.4276 89.6014 92.6231 87.9737 89.8186C86.802 87.8057 85.6327 85.7889 84.4684 83.776C84.1889 83.2978 83.8678 82.864 83.5099 82.4703C82.5147 81.3773 81.2351 80.6219 79.8575 80.2563C79.4702 80.156 79.0804 80.0837 78.6857 80.0436C78.2126 79.9953 77.7346 79.9912 77.2591 80.0313C76.1266 80.1278 75.021 80.4774 74.0307 81.068C72.9129 81.7308 72.0304 82.639 71.4029 83.6835C71.2215 83.9888 71.0597 84.3064 70.9249 84.6318C70.7876 84.9572 70.67 85.2907 70.5817 85.6322C70.2165 87.0102 70.2361 88.4928 70.6896 89.9031C70.8563 90.4094 71.072 90.9035 71.349 91.3817C72.5207 93.3946 73.69 95.4114 74.8543 97.4243C76.4845 100.229 78.1121 103.033 79.7398 105.838C81.4042 108.71 83.0711 111.579 84.7356 114.452C84.7478 114.476 84.765 114.5 84.7772 114.524C81.4189 116.609 78.2249 118.919 75.2098 121.447C73.4032 122.961 71.6627 124.548 69.9959 126.208C66.6743 129.506 63.6322 133.086 60.9015 136.907C58.6757 140.025 56.6607 143.299 54.8811 146.718C53.4936 149.378 52.2435 152.122 51.1453 154.943C49.8461 158.274 48.7577 161.713 47.8924 165.236C47.3997 167.253 46.9805 169.294 46.6349 171.367C46.5785 171.701 46.527 172.038 46.4755 172.372C46.2892 173.573 46.1324 174.783 46 176H211C210.868 174.783 210.711 173.573 210.527 172.372L210.539 172.364Z"
     fill="#34A853"
     id="path1" />
  <path
     d="M171.419 153.206C174.721 151.011 175.201 145.932 172.49 141.862C169.781 137.792 164.908 136.273 161.609 138.468C158.307 140.664 157.826 145.743 160.537 149.812C163.246 153.882 168.119 155.402 171.419 153.206Z"
     fill="#202124"
     id="path2"
     style="fill:#f4f2ed;fill-opacity:1" />
  <path
     d="M96.6073 149.827C99.3184 145.757 98.838 140.678 95.536 138.483C92.2341 136.287 87.3634 137.807 84.6522 141.876C81.9435 145.946 82.424 151.025 85.7234 153.22C89.0254 155.416 93.8986 153.896 96.6073 149.827Z"
     fill="#202124"
     id="path3"
     style="fill:#f4f2ed;fill-opacity:1" />
</svg>
